svg/food/fried_egg_fill.svg

<svg xmlns="http://www.w3.org/2000/svg" width="24" height="24" viewBox="0 0 24 24"><g fill="none"><path d="M24,0 L24,24 L0,24 L0,0 L24,0 Z M12.5935,23.2578 L12.5819,23.2595 L12.5109,23.295 L12.4919,23.2987 L12.4767,23.295 L12.4057,23.2595 C12.3958,23.2564 12.387,23.259 12.3821,23.2649 L12.378,23.2758 L12.3609,23.7031 L12.3659,23.7235 L12.3769,23.7357 L12.4805,23.8097 L12.4953,23.8136 L12.5071,23.8097 L12.6107,23.7357 L12.6233,23.7197 L12.6267,23.7031 L12.6096,23.2758 C12.6076,23.2657 12.601,23.2593 12.5935,23.2578 Z M12.8584,23.1453 L12.8445,23.1473 L12.6598,23.2397 L12.6499,23.2499 L12.6472,23.2611 L12.6651,23.6906 L12.6699,23.7034 L12.6784,23.7105 L12.8793,23.8032 C12.8914,23.8069 12.9022,23.803 12.9078,23.7952 L12.9118,23.7812 L12.8777,23.1665 C12.8753,23.1546 12.8674,23.147 12.8584,23.1453 Z M12.143,23.1473 C12.1332,23.1424 12.1222,23.1453 12.1156,23.1526 L12.1099,23.1665 L12.0758,23.7812 C12.0751,23.7927 12.0828,23.8019 12.0926,23.8046 L12.1083,23.8032 L12.3092,23.7105 L12.3186,23.7024 L12.3225,23.6906 L12.3404,23.2611 L12.3372,23.2485 L12.3278,23.2397 L12.143,23.1473 Z"/><path fill="#09244B" d="M7.42975,3.56148 C10.3044,1.867 14.0478,1.23715 16.6096,3.20738 C17.6621,4.01679 18.0506,5.2138 18.2811,6.17758 L18.3580625,6.5323725 L18.3580625,6.5323725 L18.4273,6.89459 C18.5339,7.465 18.6423,8.04548 18.8955,8.55499 C19.1224286,9.01164714 19.4285918,9.41824306 19.7575758,9.81075079 L20.1597,10.2773 C20.5423,10.7151 20.9253,11.1532 21.2268,11.6438 C21.6471,12.3276 21.9728,13.1327 22.0266,14.1177 C22.0799,15.0949 21.8615,16.1738 21.3138,17.4062 C19.4623,21.5721 14.4772,22.6876 10.2892,21.6862 C6.03722,20.6696 2,17.3554 2,12.0001 C2,8.35947 4.5146,5.27982 7.42975,3.56148 Z M12,7 C9.23858,7 7,9.23858 7,12 C7,14.7614 9.23858,17 12,17 C14.7614,17 17,14.7614 17,12 C17,9.23858 14.7614,7 12,7 Z M12,9 C13.6569,9 15,10.3431 15,12 C15,13.6569 13.6569,15 12,15 C10.3431,15 9,13.6569 9,12 C9,10.3431 10.3431,9 12,9 Z"/></g></svg>

<svg xmlns="http://www.w3.org/2000/svg" width="24" height="24"><g fill="none"><path d="M24 0v24H0V0zM12.594 23.258l-.012.002-.071.035-.02.004-.014-.004-.071-.036c-.01-.003-.019 0-.024.006l-.004.01-.017.428.005.02.01.013.104.074.015.004.012-.004.104-.074.012-.016.004-.017-.017-.427c-.002-.01-.009-.017-.016-.018m.264-.113-.014.002-.184.093-.01.01-.003.011.018.43.005.012.008.008.201.092c.012.004.023 0 .029-.008l.004-.014-.034-.614c-.003-.012-.01-.02-.02-.022m-.715.002a.023.023 0 0 0-.027.006l-.006.014-.034.614c0 .012.007.02.017.024l.015-.002.201-.093.01-.008.003-.011.018-.43-.003-.012-.01-.01z"/><path fill="#09244B" d="M7.43 3.561c2.874-1.694 6.618-2.324 9.18-.354 1.052.81 1.44 2.007 1.671 2.97l.077.355.07.363c.106.57.214 1.15.467 1.66.227.457.534.863.863 1.256l.402.466c.382.438.765.876 1.067 1.367.42.684.746 1.489.8 2.474.053.977-.166 2.056-.713 3.288-1.852 4.166-6.837 5.282-11.025 4.28C6.037 20.67 2 17.356 2 12c0-3.64 2.515-6.72 5.43-8.439M12 7a5 5 0 1 0 0 10 5 5 0 0 0 0-10m0 2a3 3 0 1 1 0 6 3 3 0 0 1 0-6"/></g></svg>
